X:1
T:E la mia Pastorella
T:E la mia Pastorella
T:Giovanni Nauwach
T:Source : Libro primo di Arie passeggiate a una voce + BC ---Brescia---1623. Editor : André Vierendeels (30/10/16).
T:Notes : Original clefs : C1, F4 Editorial accidentals above the staff Figures in BC are notated in original print
T:©
T:©
T:©
T:©
T:©
T:©
C:Giovanni Nauwach
Z:©
%%score 1 2
L:1/8
Q:1/4=98
M:4/4
K:F
V:1 treble nm="Soprano" snm="S"
V:2 bass nm="MusicXML Part"
V:1
 d6 c2- | c2 B2 B3 c | A4 G4 | D/E/F/G/ A/B/c/A/ d3 c | B3 B _e/d/c/B/ c/B/A/G/ | A4 z2 D/E/F/G/ | %6
w: La mi|_ a Pa- sto-|rel- la,|che'l _ _ _ _ _ _ _ Ciel mi|die- de'in gio- * * * * * * *|co et _ _ _|
 A/B/c/A/ B/c/d/c/ B/A/G/A/ B/G/ c/d/ | _e/d/c/B/ A/G/^F/E/ F G2 F | G8 | z4 d4 | %10
w: _ _ _ _ _ _ _ _ _ _ _ _ _ _ in _|tor- * * * * * * * men- * *|to,|Piu|
 c/B/c/A/ B/A/B/G/ A4 | c/d/_e/d/ c/B/A/G/ A4 | G4 f2 e2 | d/e/f/e/ d/c/B/A/ G/A/B/c/ d/e/f- | %14
w: leg- * * * gie- * * * ra|di _ _ _ ven- * * * *|to, Piu ve-|lo- * * * * * * * * * * * * * *|
 f/e/d c4 G/A/B/c/ | d/e/f/g/ AA A4 | G4 z4 | z4 z2 DE | F2 EF G4 |"^-natural" G2 A2 B3 B | %20
w: * ce di stral ch'e _ _ _|_ _ _ _ d'e di cor-|da|del' her-|bet- ta no- vel-|la, piu va- ga'e|
 ^cc d4 c2 | d2 f4 d2 | _e8 | d4 d/c/B/A/ _e/d/c/B/ | A/G/F/G/ A/B/c/B/ A4 | G4 B4 | B2 c2 d4- | %27
w: te- ne- rel- *|la, ma piu|du-|ra dis- * * * co- * * *||glio, quand'|io mi la-|
 d2- d/ c/B/A/ B4 | c4 A4 | f3 e d4- | d2 cB c4- | c2 B2 B4- | B2 c2 A4 | G4 z4 | z4 fe Td>c | %35
w: * * gno'e _ _ do-|* glio,|piu del' on-|* da del mar|_ fal- la-|* c'e sor-|da,|piu _ _ del|
 dcBc dc Tc>B | cBAB cB TB>A | B/A/B/G/ A/B/c/B/ c/A/B/c/ d/c/d/B/ | %38
w: on- * * * * * da del|mar _ _ _ _ _ _ fal-|la- * * * * * * * * * * * * * * *|
 c/d/G/A/ B/A/B/G/ A/B/c/d/ _e/d/c/B/ | A/B/c/B/ A/G/^F/G/ A/G/A/F/ G/A/D/E/ | %40
w: ||
 ^F/E/F/D/ E/F/G/A/ B/4c/4d/4^c/4c/4c/4c/4c/4 c/4B/4c/d | B/A/B/G/ A/B/c/B/ A4 | !fermata!G8 |] %43
w: |c'e _ _ _ _ _ _ _ sor-|da|
V:2
"^BC" D,2 E,2 ^F,4 |"^7" G,4 C,4 |"^#" D,4 G,,2 A,,2 | B,,4 B,2 A,2 | G,2 F,2 _E,4 | D,2 C,2 B,,4 | %6
 C,2 D,2 _E,4- |"^#" E,4 D,4 | G,,2 G,4 ^F,2 | G,2 A,2 B,4 | A,2 G,2 F,4 |"^#" C,2 _E,2 D,4 | %12
 G,,2 A,,2 B,,4 | B,,8 | F,6 _E,2 |"^#""^-natural" D,2 C,2 D,4 | G,,2 G,4 ^F,2 | G,2 A,2 B,4 | %18
 B,,4 _E,4 | _E,2 D,C, B,,4 |"^# 3443" A,,8 | D,4 B,,4 |"^6" G,4 A,4 | B,4 B,,4 |"^#" C,4 D,4 | %25
 G,,4 G,4 | G,2 A,2 B,4 | B,4 _E,4 | C,4 D,2 C,2 | B,,6 A,,G,, | F,,4 F,4 | G,4 G,,4 | %32
"^#" C,4 D,4 | G,,2 G,4 ^F,2 | G,2 A,2 B,4 | B,,8 | F,8 | G,2 F,2 _E,2 D,2 | C,2 B,,2 A,,2 G,,2 | %39
"^#" D,8 |"^#" D,8 |"^#" _E,2 C,2 D,4 | !fermata!G,,8 |] %43

